!! Example 4: "Passing Through the Garden"
!! from William H. Tallmadge, "Folk Organum: A Study of Origins" in
!! "American Music" Vol. 2, No. 3 (1984) p.53
!! Irregular meter
**kern	**kern
8.A	4c
16F	.
=1	=1
4B-	4d
2.c	2.f
4c	4f
=2	=2
4G	4d
2F	2c
4F	4c
=3	=3
4B-	4d
[2c	[2f
8c]	4f]
8e-	.
8c	8f
8F	8c
=4	=4
4.B-	4.e-
8r	8r
4F	4c
=5	=5
4B-	4e-
2.c	2.f
4c	4f
=6	=6
4G	4d
2F	2c
8G	8d
8F	8c
=7	=7
4C	4c
4BB-	4B-
4F	4c
=8	=8
4.F	4.c
8r	8r
=9	=9
[2A	[2f
8A]	8f]
16F	16c
16r	16r
4A	4f
=10	=10
4F	4f
4C	4c
4F	4d
=11	=11
2F	2c
==	==
*-	*-
